material/.icons/material/home-city-outline.svg

<svg xmlns="http://www.w3.org/2000/svg" viewBox="0 0 24 24"><path d="M10 2v2.26l2 1.33V4h10v15h-5v2h7V2H10M7.5 5L0 10v11h15V10L7.5 5M14 6v.93L15.61 8H16V6h-2m4 0v2h2V6h-2M7.5 7.5L13 11v8h-3v-6H5v6H2v-8l5.5-3.5M18 10v2h2v-2h-2m0 4v2h2v-2h-2z"/></svg>

<?xml version="1.0" encoding="UTF-8"?><!DOCTYPE svg PUBLIC "-//W3C//DTD SVG 1.1//EN" "http://www.w3.org/Graphics/SVG/1.1/DTD/svg11.dtd"><svg xmlns="http://www.w3.org/2000/svg" xmlns:xlink="http://www.w3.org/1999/xlink" version="1.1" id="mdi-home-city-outline" width="24" height="24" viewBox="0 0 24 24"><path d="M10,2V4.26L12,5.59V4H22V19H17V21H24V2H10M7.5,5L0,10V21H15V10L7.5,5M14,6V6.93L15.61,8H16V6H14M18,6V8H20V6H18M7.5,7.5L13,11V19H10V13H5V19H2V11L7.5,7.5M18,10V12H20V10H18M18,14V16H20V14H18Z" /></svg>
